X:10323
T:Marfull Hornpipe. JC.128
M:C
L:1/8
Q:130
S:John Clare,Poet,Helpston. (1793-1864)
R:Hornpipe
O:England
A:Northamptonshire
N:
Z:P Headford
K:D
AG|FDFA gfed|ceA2A2dc|BGBd BGEA|F2D2D2AG|!
FDFD GEGE|FdcB AFAF|DFAd cBAG|A2A2A2:|!
|:cd|ecAc ecAc|f2d2d2de|fdAd fdAd|g2e2e2fg|!
afdf ecAc|cAFA AFDF|AdcB AGFE|D2D2D2:|]
